X:912
T:Bluemont waltz
R:Waltz
C:Rodney Miller
B:The Waltz Book
S:The Waltz Book
Z:Transcription:Mike Long, chords:Bill Matthiesen
M:3/4
L:1/4
K:A
A/B/|\
"A"c2 e/c/|"E"B>d c/B/|"F#m"A<F F/G/|F2E|\
"D"D>E F/D/|"A"Ec B/A/|"Bm"B3-|"E"B2A/B/|\
"A"c2e/c/|"E"B>d c/B/|"F#m"A<F F/G/|
F2E|\
"D"D>E F/D/|"E"Ec B/A/|"A"A3|cd e/>A/\
|:"D"f3|"E"e>f e/d/|"A"d<c c/d/|"(F#m)"c2B|\
"D"A3|"E"B2A/e/|
"A"c3|"(F#m)"cBA|\
"Bm"B2 B/c/|"E"B2A/F/|"A"E<A A/E/|"F#m"F<A E|\
"D"D>E F/D/|"E"EcB|[1 "A"A3|cd e/A/:|[2 "A"A3|A3|]
